!!!!SEGMENT: pl-wnifc--6432-n--002_nowakowski-jozef--mazur-no-2.krn
!!!cenid: 18xx:3925
!!!COM: Nowakowski, Józef
!!!COM-rismID: pe175316
!!!CDT: 1880/09/16-1865/08/27
!!!CNT: Polish
!!!OTL: Mazur No. 2
!!!PDT: 1825
!!!AGN:
!!!SMS-siglum: PL-Wnifc
!!!SMS-shelfmark: 6432/n
!!!SMS-shelfwork: 002 W
!!!SMS-variant:
!!!SMS-altvar:
!!!NIFC-rismSourceID: 1001134716
!!!NIFC-rismChildID: 1001134730
!!!NIFC-islandoraID: nifc:212700
!!!URL-pdf-islandora: https://repozytorium.nifc.pl/islandora/object/nifc%3A212700/datastream/PDF/view
!!!URL-scan: https://polish.musicsources.pl/pl/lokalizacje/galeria/druki-muzyczne/16851 @EN{Scan on Polish Music Sources Website} @PL{Skany w portalu Dziedzictwo Muzyki Polskiej w otwartym dostępie}
!!!ONB-nifc: UWAGA: w źródle 5 Mazurów (001-005), 4 Anglezy (006-009), 2 Walce (010-011) i Fantaisie Valse (012).
!!!AIN: 2 piano
!!!key: D
**kern	**kern
*part2	*part1
*staff2	*staff1
*I"[Piano-Forte]	*I"[Piano-Forte]
*I'pf	*I'pf
*ICklav	*ICklav
*Ipiano	*Ipiano
*clefF4	*clefG2
*k[f#c#]	*k[f#c#]
*D:	*D:
*M3/8	*M3/8
=1	=1
8DD/L 8D	24a/LL
.	24b/
.	24cc#/JJ
8D\ 8F# 8A 8d	8dd\L
8D\J 8G 8A 8c#	8a\J 8ee
=2	=2
4D\ 4F# 4A 4d	4a^\ 4ff#
8D\ 8A	8f#\ 8dd
=3	=3
8DD/L 8D	16a\LL 16ff#
.	16ff#\JJ 16aa
8D\ 8Fn 8G#X 8B 8d	8ee#X'\L 8gg#X
8D\J 8F 8G# 8B 8d	8ee#'\J 8gg#
=4	=4
4D^\ 4F# 4A 4d	4a^\ 4ff# 4aa
8D\ 8A	16ff#\LL
.	16dd\JJ
=5	=5
8DD/L 8D	32gg#X\LLL
.	32aa\
.	32bb\
.	32aa\JJJ
8D\ 8Fn 8G#X 8B 8d	8ee#X\L 8gg#
8D\J 8F 8G# 8B 8d	8ee#\J 8gg#
=6	=6
4D^\ 4F# 4A 4d	4a^\ 4ff# 4aa
8D\ 8A	16ff#\LL
.	16dd\JJ
=7	=7
8AA\L 8A	8ee\L
!	!LO:TUP:a:problem:klamra łukowa
8A\ 8c# 8e 8g	24gg\L
.	24aa\
.	24gg\
8A\J 8c# 8e 8g	16ff#\
.	16ee\JJ
=8	=8
!	!LO:TUP:a
8D\L 8d	24dd\LL
.	24ee\
.	24ff#\JJ
8A\ 8d 8f#	8dd\L
8A\J 8d 8f#	16cc#\L
.	16b\JJ
=9	=9
8AA\L	16a/LL
.	16b/
8E\ 8G 8A	16cc#/
.	16a/
8E\J 8G 8A	16b/
.	16cc#/JJ
=10	=10
(8D\L	(32dd\LLL
.	32ee\
.	32dd\
.	32cc#\JJJ
8F#\J) 8A	16dd\LL
.	16ff#\
8r	16bb\
.	16aa\JJ)
=11	=11
8AA\L 8A	8ee\L
!	!LO:TUP:a:problem:klamra łukowa
8A\ 8c# 8e 8g	24gg\L
.	24aa\
.	24gg\
8A\J 8c# 8e 8g	16ff#\
.	16ee\JJ
=12	=12
!	!LO:TUP:a:problem:klamra łukowa
8D\L 8d	24dd\LL
.	24ee\
.	24ff#\JJ
8A\ 8d 8f#	8dd\L
.	8qaa#X/
8A\J 8d 8f#	8aa#^\J
!!LO:LB:g=original	!
=13	=13
8AA\L 8A	(16a/LL
.	16b/
8A\ 8c# 8e 8g	16cc#/
.	16a/
8A\J 8c# 8e 8g	16b/
.	16cc#/JJ)
=14	=14
!LO:TX:a:t=P:problem:mixed beam	!
8d\L 8f#	(16ee\LL
.	16dd\JJ)
8D/J	4dd\
8r	.
=15:|!|:	=15:|!|:
8EE\L 8E	(16ee\LL
.	16ff#\
8E\ 8B 8d	16gg#X\
.	16aa\
8E\J 8B 8d	16bb\
.	16bb#X\JJ)
=16	=16
8AA\L 8A	16.ccc#\LL
.	32aa\JJk
8A\ 8c# 8e	4eee\
8A\J 8c# 8e	.
=17	=17
8EE\L 8E	(16eee\LL
.	16ddd#X\
8E\ 8G#X 8B 8d	16dddn\
.	16bb\
8E\J 8G# 8B 8d	16ff#\
.	16gg#X\JJ)
=18	=18
8AA\L 8A	16.aa\LL
.	32ccc#\JJk
8E\ 8A 8c#	8.ee\L
8E\J 8A 8c#	.
.	16ee#X\Jk
=19	=19
*^	*
8D\L	4D/	16ff#\LL
.	.	16gg#X\
8F#\ 8A 8d	.	16bb\
.	.	16aa\
8F#\J 8A 8d	8ryy	16gg#\
.	.	16ff#\JJ
*v	*v	*
=20	=20
8C#\	16.ee\LL
.	32aa\JJk
4AA^:\ 4E: 4A:	8.cc#^\L
.	16ff#\Jk
=21	=21
!LO:TX:a:t=P:problem:mixed beam	!
8EE/L	16ee\LL
.	16dd#X\
8E\ 8G#X 8B 8d	16ddn\
.	16b\
8E\J 8G# 8B 8d	16f#\
.	16g#X\JJ
=22	=22
8A\L 8c#	(16a/LL
.	16cc#/JJ)
8AA/J	4a/ 4dd
8r	.
=:|!	=:|!
*-	*-
!!!system-decoration: {(s1,s2)}
!!!ENC: Berenika Jozajtis
!!!END: 2022-07-27
!!!ENC: Jan Barakat
!!!END: 2022-08-26
!!!YEC: Copyright 2022 Narodowy Instytut Fryderyka Chopina (https://polishscores.org)
!!!YEM: License CC-BY-4.0 (https://creativecommons.org/licenses/by/4.0)
